Newaita-dark/actions/22/format-justify-center.svg

<?xml version="1.0" encoding="UTF-8"?>
<svg xmlns="http://www.w3.org/2000/svg" xmlns:xlink="http://www.w3.org/1999/xlink" width="22pt" height="22pt" viewBox="0 0 22 22" version="1.1">
<g id="surface1">
<path style=" stroke:none;fill-rule:nonzero;fill:rgb(74.117649%,74.117649%,74.117649%);fill-opacity:1;" d="M 2.386719 2.902344 L 19.441406 2.902344 C 19.757812 2.902344 20.011719 3.105469 20.011719 3.355469 L 20.011719 3.808594 C 20.011719 4.0625 19.757812 4.265625 19.441406 4.265625 L 2.386719 4.265625 C 2.074219 4.265625 1.820312 4.0625 1.820312 3.808594 L 1.820312 3.355469 C 1.820312 3.105469 2.074219 2.902344 2.386719 2.902344 Z M 2.386719 2.902344 "/>
<path style=" stroke:none;fill-rule:nonzero;fill:rgb(74.117649%,74.117649%,74.117649%);fill-opacity:1;" d="M 4.945312 7.902344 L 16.882812 7.902344 C 17.105469 7.902344 17.28125 8.105469 17.28125 8.359375 L 17.28125 8.8125 C 17.28125 9.0625 17.105469 9.269531 16.882812 9.269531 L 4.945312 9.269531 C 4.726562 9.269531 4.546875 9.0625 4.546875 8.8125 L 4.546875 8.359375 C 4.546875 8.105469 4.726562 7.902344 4.945312 7.902344 Z M 4.945312 7.902344 "/>
<path style=" stroke:none;fill-rule:nonzero;fill:rgb(74.117649%,74.117649%,74.117649%);fill-opacity:1;" d="M 4.945312 17.910156 L 16.882812 17.910156 C 17.105469 17.910156 17.28125 18.113281 17.28125 18.363281 L 17.28125 18.820312 C 17.28125 19.070312 17.105469 19.273438 16.882812 19.273438 L 4.945312 19.273438 C 4.726562 19.273438 4.546875 19.070312 4.546875 18.820312 L 4.546875 18.363281 C 4.546875 18.113281 4.726562 17.910156 4.945312 17.910156 Z M 4.945312 17.910156 "/>
<path style=" stroke:none;fill-rule:nonzero;fill:rgb(74.117649%,74.117649%,74.117649%);fill-opacity:1;" d="M 4.945312 12.90625 L 16.882812 12.90625 C 17.105469 12.90625 17.28125 13.109375 17.28125 13.359375 L 17.28125 13.816406 C 17.28125 14.066406 17.105469 14.269531 16.882812 14.269531 L 4.945312 14.269531 C 4.726562 14.269531 4.546875 14.066406 4.546875 13.816406 L 4.546875 13.359375 C 4.546875 13.109375 4.726562 12.90625 4.945312 12.90625 Z M 4.945312 12.90625 "/>
</g>
</svg>

<svg xmlns="http://www.w3.org/2000/svg" width="22pt" height="22pt" viewBox="0 0 22 22"><g fill="#bdbdbd"><path d="M2.387 2.902H19.44c.317 0 .57.203.57.453v.454c0 .253-.253.457-.57.457H2.387c-.313 0-.567-.204-.567-.457v-.454c0-.25.254-.453.567-.453zm0 0M4.945 7.902h11.938c.222 0 .398.203.398.457v.454c0 .25-.176.457-.398.457H4.945c-.218 0-.398-.207-.398-.457v-.454c0-.254.18-.457.398-.457zm0 0M4.945 17.91h11.938c.222 0 .398.203.398.453v.457c0 .25-.176.453-.398.453H4.945c-.218 0-.398-.203-.398-.453v-.457c0-.25.18-.453.398-.453zm0 0M4.945 12.906h11.938c.222 0 .398.203.398.453v.457c0 .25-.176.454-.398.454H4.945c-.218 0-.398-.204-.398-.454v-.457c0-.25.18-.453.398-.453zm0 0"/></g></svg>
